public/technologies/firestore_icon.svg

<svg width="128" height="128" viewBox="0 0 128 128" fill="none" xmlns="http://www.w3.org/2000/svg">
<path d="M27.35 80.5202L38.03 12.0802C38.4 9.75023 41.53 9.19023 42.63 11.2802L54.11 32.7602L27.35 80.5202ZM103.29 97.1502L93.1 34.1102C92.79 32.1502 90.34 31.3502 88.93 32.7602L24.71 97.1502L60.25 117.1C61.3498 117.705 62.5847 118.023 63.84 118.023C65.0952 118.023 66.3302 117.705 67.43 117.1L103.29 97.1502ZM74.44 42.1502L66.21 26.5002C65.29 24.7202 62.77 24.7202 61.85 26.5002L25.7 90.9502L74.44 42.1502Z" fill="#F58220"/>
</svg>

<svg xmlns="http://www.w3.org/2000/svg" width="128" height="128" fill="none"><path fill="#F58220" d="m27.35 80.52 10.68-68.44c.37-2.33 3.5-2.89 4.6-.8l11.48 21.48-26.76 47.76Zm75.94 16.63L93.1 34.11c-.31-1.96-2.76-2.76-4.17-1.35L24.71 97.15l35.54 19.95a7.45 7.45 0 0 0 7.18 0l35.86-19.95Zm-28.85-55L66.21 26.5c-.92-1.78-3.44-1.78-4.36 0L25.7 90.95l48.74-48.8Z"/></svg>
